Adwaita++-Dark/actions/22/timeline-use-zone-off.svg

<svg fill="none" height="22" viewBox="0 0 22 22" width="22" xmlns="http://www.w3.org/2000/svg">
  <path d="m17 3-14 14 2 2 14-14zm-10 2v4h-1v-2h-2v2h-1v2h4.5l2-2h-.5v-4zm3 2v1.5l1.5-1.5zm8 .5-3.5 3.5h4.5v-2h-1zm-13.5 4.5c-.27614 0-.5.2239-.5.5v2l2.5-2.5zm9 0-3 3h7c.2761 0 .5-.2239.5-.5v-2c0-.2761-.2239-.5-.5-.5z" fill="#e6ddff"/>
</svg>

<svg xmlns="http://www.w3.org/2000/svg" fill="none" width="22" height="22" viewBox="0 0 22 22">
 <path fill="#E6DDFF" d="M17 3L3 17L5 19L19 5L17 3ZM7 5V9H6V7H4V9H3V11H7.5L9.5 9H9V5H7ZM10 7V8.5L11.5 7H10ZM18 7.5L14.5 11H19V9H18V7.5ZM4.5 12C4.22386 12 4 12.2239 4 12.5V14.5L6.5 12H4.5ZM13.5 12L10.5 15H17.5C17.7761 15 18 14.7761 18 14.5V12.5C18 12.2239 17.7761 12 17.5 12H13.5Z"/>
</svg>
